icons-mns/notification-lines.svg

<svg height="1em" width="auto" viewBox="0 0 105 105" fill="currentColor" xmlns="http://www.w3.org/2000/svg">
<path d="M70.2261 44.701C70.2321 45.1481 70.1488 45.592 69.9811 46.0068C69.8133 46.4216 69.5644 46.7992 69.2489 47.1175C68.9334 47.4358 68.5575 47.6885 68.143 47.861C67.7286 48.0334 67.2839 48.1222 66.8347 48.1222H38.2558C37.8066 48.1222 37.3619 48.0334 36.9474 47.861C36.533 47.6885 36.1571 47.4358 35.8416 47.1175C35.5261 46.7992 35.2772 46.4216 35.1094 46.0068C34.9417 45.592 34.8584 45.1481 34.8644 44.701C34.864 44.1014 35.0198 43.512 35.3166 42.9904L42.0091 31.5113C42.2949 31.0014 42.4502 30.4294 42.4613 29.8457V18.0064C42.4613 15.344 43.5237 12.7907 45.4148 10.9081C47.3059 9.02548 49.8708 7.96785 52.5452 7.96785C55.2197 7.96785 57.7846 9.02548 59.6757 10.9081C61.5668 12.7907 62.6292 15.344 62.6292 18.0064V29.8006C62.6403 30.3844 62.7956 30.9564 63.0814 31.4662L69.7739 42.9904C70.0707 43.512 70.2265 44.1014 70.2261 44.701ZM78.1396 44.701C78.1485 42.7272 77.6337 40.7861 76.6473 39.074L70.5427 28.5852V18.0064C70.5427 13.2308 68.637 8.65082 65.2449 5.27396C61.8527 1.8971 57.252 0 52.4548 0C47.6576 0 43.0569 1.8971 39.6648 5.27396C36.2726 8.65082 34.367 13.2308 34.367 18.0064V28.5852L28.4432 39.074C27.4533 40.7898 26.9334 42.7343 26.9356 44.713C26.9377 46.6917 27.4617 48.6351 28.4552 50.3489C29.4488 52.0626 30.8769 53.4866 32.5969 54.4784C34.3168 55.4701 36.2682 55.9948 38.2558 56H66.8347C69.8371 55.9881 72.7124 54.7924 74.8312 52.6747C76.95 50.557 78.1396 47.6899 78.1396 44.701Z"/>
<path d="M66.3373 24.624L102.513 25.4343C102.853 25.4341 103.19 25.5022 103.503 25.6344C103.817 25.7667 104.1 25.9605 104.336 26.2042C104.573 26.4479 104.757 26.7365 104.879 27.0529C105.001 27.3692 105.057 27.7067 105.045 28.0452C105.034 28.7102 104.763 29.3447 104.291 29.815C103.818 30.2853 103.181 30.5546 102.513 30.5661L66.3373 31.3764C65.4378 31.3764 64.5752 31.0207 63.9391 30.3876C63.3031 29.7544 62.9458 28.8957 62.9458 28.0002C62.9458 27.1048 63.3031 26.2461 63.9391 25.6129C64.5752 24.9797 65.4378 24.624 66.3373 24.624Z" />
<path d="M71.0401 34.4375L86.3243 35.2478C86.665 35.259 86.9998 35.3386 87.3088 35.4818C87.6179 35.6249 87.8947 35.8287 88.1227 36.0809C88.3507 36.3331 88.5252 36.6285 88.6358 36.9495C88.7463 37.2705 88.7907 37.6103 88.7662 37.9488C88.7238 38.5796 88.4529 39.1737 88.0038 39.6207C87.5547 40.0678 86.958 40.3374 86.3243 40.3796L71.0401 41.1899C70.1406 41.2377 69.2589 40.9278 68.589 40.3284C67.919 39.729 67.5157 38.8892 67.4677 37.9938C67.4197 37.0983 67.7311 36.2206 68.3332 35.5537C68.9353 34.8868 69.7788 34.4853 70.6783 34.4375H71.0401Z" />
<path d="M67.6032 14.8105L85.6911 15.6208C86.3747 15.6208 87.0303 15.8912 87.5137 16.3724C87.9971 16.8536 88.2686 17.5062 88.2686 18.1868C88.2686 18.8673 87.9971 19.5199 87.5137 20.0011C87.0303 20.4823 86.3747 20.7527 85.6911 20.7527L67.6032 21.563C66.7038 21.6047 65.8245 21.2891 65.1588 20.6855C64.493 20.0819 64.0955 19.2397 64.0535 18.3443C64.0115 17.4489 64.3286 16.5735 64.9349 15.9108C65.5413 15.2481 66.3872 14.8523 67.2867 14.8105H67.6032Z" />
<path d="M38.7532 31.5112L2.57752 30.7009C1.89392 30.7009 1.23832 30.4306 0.754938 29.9494C0.271559 29.4682 0 28.8155 0 28.135C0 27.4545 0.271559 26.8018 0.754938 26.3206C1.23832 25.8394 1.89392 25.5691 2.57752 25.5691L38.7532 24.7588C39.6527 24.7588 40.5153 25.1145 41.1514 25.7477C41.7874 26.3808 42.1447 27.2396 42.1447 28.135C42.1447 29.0304 41.7874 29.8892 41.1514 30.5223C40.5153 31.1555 39.6527 31.5112 38.7532 31.5112Z" />
<path d="M34.0504 41.1895L18.8114 40.5143C18.1278 40.5143 17.4722 40.244 16.9888 39.7628C16.5054 39.2816 16.2339 38.6289 16.2339 37.9484C16.2339 37.2679 16.5054 36.6152 16.9888 36.134C17.4722 35.6528 18.1278 35.3825 18.8114 35.3825L34.0504 34.5722C34.9499 34.5244 35.8316 34.8343 36.5015 35.4337C37.1715 36.0331 37.5748 36.8729 37.6228 37.7683C37.6708 38.6638 37.3594 39.5415 36.7573 40.2084C36.1552 40.8753 35.3117 41.2768 34.4122 41.3246L34.0504 41.1895Z" />
<path d="M37.5323 21.5628L19.4445 20.7525C19.0979 20.7413 18.7571 20.6605 18.4426 20.5151C18.1281 20.3697 17.8464 20.1626 17.6142 19.9062C17.3819 19.6498 17.2041 19.3494 17.0912 19.023C16.9784 18.6966 16.9329 18.3509 16.9574 18.0066C16.9804 17.3614 17.2512 16.7497 17.714 16.2974C18.1767 15.8451 18.7961 15.5868 19.4445 15.5757L37.5323 14.7654C38.4318 14.7296 39.3087 15.0509 39.9702 15.6588C40.6316 16.2666 41.0235 17.1111 41.0594 18.0066C41.0954 18.902 40.7726 19.775 40.162 20.4334C39.5514 21.0919 38.7031 21.482 37.8036 21.5178L37.5323 21.5628Z" />
</svg>

<svg xmlns="http://www.w3.org/2000/svg" width="auto" height="1em" fill="currentColor" viewBox="0 0 105 105">
    <path d="M70.226 44.701a3.36 3.36 0 0 1-.977 2.416 3.4 3.4 0 0 1-2.414 1.005h-28.58a3.4 3.4 0 0 1-2.413-1.005 3.38 3.38 0 0 1-.978-2.416c0-.6.156-1.189.453-1.71l6.692-11.48a3.54 3.54 0 0 0 .452-1.665v-11.84c0-2.662 1.063-5.215 2.954-7.098a10.1 10.1 0 0 1 7.13-2.94c2.675 0 5.24 1.057 7.13 2.94a10.02 10.02 0 0 1 2.954 7.098v11.795c.011.583.167 1.155.452 1.665l6.693 11.524c.297.522.453 1.111.452 1.711m7.914 0a11.17 11.17 0 0 0-1.493-5.627l-6.104-10.489V18.006c0-4.775-1.906-9.355-5.298-12.732A18.13 18.13 0 0 0 52.455 0a18.13 18.13 0 0 0-12.79 5.274 17.97 17.97 0 0 0-5.298 12.732v10.58l-5.924 10.488a11.26 11.26 0 0 0 .012 11.275 11.3 11.3 0 0 0 4.142 4.13A11.4 11.4 0 0 0 38.256 56h28.579a11.38 11.38 0 0 0 7.996-3.325A11.27 11.27 0 0 0 78.14 44.7"/>
    <path d="m66.337 24.624 36.176.81a2.54 2.54 0 0 1 1.823.77 2.5 2.5 0 0 1 .709 1.841 2.56 2.56 0 0 1-.754 1.77c-.473.47-1.11.74-1.778.751l-36.176.81a3.4 3.4 0 0 1-2.398-.988 3.37 3.37 0 0 1 0-4.775 3.4 3.4 0 0 1 2.398-.989m4.703 9.814 15.284.81a2.54 2.54 0 0 1 1.799.833 2.52 2.52 0 0 1 .643 1.868 2.6 2.6 0 0 1-.762 1.672 2.63 2.63 0 0 1-1.68.759l-15.284.81a3.4 3.4 0 0 1-2.451-.862 3.37 3.37 0 0 1-.256-4.775 3.4 3.4 0 0 1 2.345-1.115zM67.603 14.81l18.088.81c.684 0 1.34.271 1.823.752a2.56 2.56 0 0 1 0 3.63 2.58 2.58 0 0 1-1.823.75l-18.088.811a3.4 3.4 0 0 1-2.444-.877 3.37 3.37 0 0 1-.224-4.775 3.4 3.4 0 0 1 2.352-1.1zm-28.85 16.701-36.175-.81a2.58 2.58 0 0 1-1.823-.752 2.56 2.56 0 0 1 0-3.628 2.58 2.58 0 0 1 1.823-.752l36.175-.81a3.4 3.4 0 0 1 2.398.989 3.37 3.37 0 0 1 0 4.774 3.4 3.4 0 0 1-2.398.99M34.05 41.19l-15.239-.676c-.683 0-1.339-.27-1.822-.751a2.56 2.56 0 0 1 0-3.629 2.58 2.58 0 0 1 1.822-.751l15.24-.81a3.4 3.4 0 0 1 2.45.86 3.37 3.37 0 0 1 .256 4.775 3.4 3.4 0 0 1-2.345 1.117zm3.482-19.627-18.087-.81a2.6 2.6 0 0 1-1.83-.847 2.56 2.56 0 0 1-.658-1.9 2.52 2.52 0 0 1 .757-1.709 2.54 2.54 0 0 1 1.73-.721l18.088-.81a3.4 3.4 0 0 1 2.438.893 3.37 3.37 0 0 1 .192 4.774 3.4 3.4 0 0 1-2.358 1.085z"/>
</svg>
